X:18394
T:Walter Bulwer's Polka
M:2/4
L:1/8
K:G
P:AABB
P:A
"G"DG GF/G/|"C"AE E2|"D7"F/G/A F/G/A|"G"AG G>E|
DG GF/G/|"C"AE E2|"D7"F/G/A/F/ DG|"G"G2 G2:|
P:B
|:"D"AA "G"BB|"D"A/G/F/G/ AA|"A7"G/F/E/F/ GG|"D"F/E/D/F/ G>A|
"D"AA "G"BB|"D"A/G/F/G/ A2|"Em"G/F/E/F/ "A7"G/A/B/c/|"D"d2 d2:|


